X: 127
T:Haddington Assembly
K:G
M:6/8
L:1/8
||:B/c/|"G"dBG G2B|"G"dBG A2 B|"Am"ecA ABA|"D"f3 "G"g3|
"G"dBG G2 B|"D7"AFD D2c|"G"BdB "D7"cAF|"G"G3 G2:||!
||:d|"G"g2 a bge|"D"f2 g afd|"C"ege "G"dBG|ABG "D"FED|
"G"GBG "Am7"A2 c|"G"BdB "C"c2 e|"Bm"dcB "D"AGF|"G"G3 G2:||
% <A name="D1X128">
